packages/amis-editor/src/icons/form/static.svg

<?xml version="1.0" encoding="UTF-8"?>
<svg width="16px" height="16px" viewBox="0 0 16 16" version="1.1" xmlns="http://www.w3.org/2000/svg" xmlns:xlink="http://www.w3.org/1999/xlink">
    <g id="静态显示框" stroke="none" stroke-width="1" fill="none" fill-rule="evenodd">
        <rect id="矩形" stroke="currentColor" stroke-linejoin="round" x="1.5" y="3" width="13" height="10"></rect>
        <path d="M7.95650183,6.53708791 C8.10760073,6.53708791 8.23122711,6.48901099 8.33424908,6.39285714 C8.43727106,6.2967033 8.49221612,6.16620879 8.49221612,6.01510989 C8.49221612,5.86401099 8.43727106,5.74038462 8.34111722,5.64423077 C8.23809524,5.54807692 8.10760073,5.5 7.95650183,5.5 C7.80540293,5.5 7.68177656,5.54807692 7.57875458,5.64423077 C7.4757326,5.74038462 7.42765568,5.86401099 7.42765568,6.01510989 C7.42765568,6.16620879 7.4757326,6.28983516 7.57875458,6.39285714 C7.68177656,6.48901099 7.80540293,6.53708791 7.95650183,6.53708791 Z M8.34798535,10.5 L8.34798535,6.94917582 L7.56501832,6.94917582 L7.56501832,10.5 L8.34798535,10.5 Z" id="i" stroke="currentColor" stroke-width="0.2" fill="currentColor" fill-rule="nonzero"></path>
    </g>
</svg>

<svg width="16" height="16" xmlns="http://www.w3.org/2000/svg"><g fill="none" fill-rule="evenodd" stroke="currentColor"><path stroke-linejoin="round" d="M1.5 3h13v10h-13z"/><path d="M7.957 6.537a.53.53 0 0 0 .377-.144.502.502 0 0 0 .158-.378.507.507 0 0 0-.15-.37.546.546 0 0 0-.385-.145.53.53 0 0 0-.378.144.482.482 0 0 0-.151.371c0 .151.048.275.15.378a.53.53 0 0 0 .379.144Zm.391 3.963V6.95h-.783v3.55h.783Z" stroke-width=".2" fill="currentColor" fill-rule="nonzero"/></g></svg>
